public/assests/icons/logo-header.svg

<svg width="96" height="20" viewBox="0 0 96 20" fill="none" xmlns="http://www.w3.org/2000/svg">
<g clip-path="url(#clip0_202_4)">
<path d="M95.8297 14.8287V17.201H93.8368C91.7102 17.1343 90.574 15.9875 90.574 13.8336V8.41541H89.1826V6.33428H90.574V4.00439H93.5148V6.31001H95.7629V8.38507H93.5148V13.5424C93.5148 14.2401 93.6545 14.7983 94.73 14.7983L95.8297 14.8287Z" fill="#FFB577"/>
<path d="M77.462 11.7891V11.6313C77.4302 10.9335 77.5367 10.2362 77.7752 9.57953C78.0137 8.92284 78.3797 8.31962 78.8522 7.80443C79.3246 7.28925 79.8942 6.87224 80.5284 6.57731C81.1625 6.28237 81.8487 6.11531 82.5476 6.08569C82.6874 6.08569 82.8332 6.08569 82.9729 6.08569C85.7496 6.08569 88.1861 7.69963 88.1861 11.5464V12.3655H80.4696C80.5486 14.1372 81.5086 15.1383 83.1248 15.1383C84.5162 15.1383 85.1663 14.5315 85.3547 13.6457H88.1314C87.7912 15.9574 85.9441 17.2437 83.0215 17.2437C79.8134 17.2194 77.462 15.1929 77.462 11.7891ZM85.2939 10.5088C85.1907 8.89491 84.3765 8.11828 82.9608 8.11828C81.5451 8.11828 80.7309 8.99199 80.5304 10.5088H85.2939Z" fill="#FFB577"/>
<path d="M65.4562 11.7891V11.6313C65.4244 10.9344 65.5304 10.2382 65.7682 9.58223C66.006 8.9263 66.3709 8.3236 66.842 7.80857C67.3132 7.29355 67.8814 6.8763 68.5141 6.58068C69.1469 6.28506 69.8318 6.11686 70.5296 6.08569C70.6694 6.08569 70.8152 6.08569 70.9549 6.08569C73.7316 6.08569 76.1742 7.69963 76.1742 11.5464V12.3655H68.4638C68.5428 14.1372 69.5028 15.1383 71.119 15.1383C72.5104 15.1383 73.1605 14.5315 73.3489 13.6457H76.1256C75.7792 15.9574 73.9322 17.2437 71.0096 17.2437C67.8076 17.2194 65.4562 15.1929 65.4562 11.7891ZM73.2881 10.5088C73.1848 8.89491 72.3706 8.11828 70.9549 8.11828C69.5392 8.11828 68.7494 9.01625 68.5246 10.5028L73.2881 10.5088Z" fill="#FFB577"/>
<path d="M48.6074 6.31006H51.7183L53.6201 13.506L55.7041 6.31006H58.1345L60.0181 13.506L62.0231 6.31006H64.8727L61.4945 17.0008H58.5781L56.7553 10.2903L54.8049 17.0008H51.852L48.6074 6.31006Z" fill="#FFB577"/>
<path d="M38.7222 13.6395H41.4989C41.6265 14.6042 42.1065 15.1563 43.3824 15.1563C44.5247 15.1563 45.0533 14.7255 45.0533 13.9914C45.0533 13.2572 44.4457 12.9478 42.8903 12.7294C40.0407 12.2986 38.9409 11.4795 38.9409 9.39229C38.9409 7.16555 40.9824 6.06128 43.1941 6.06128C45.5698 6.06128 47.3622 6.92285 47.6174 9.38016H44.8771C44.8596 9.19019 44.8046 9.00556 44.7153 8.83694C44.6259 8.66833 44.504 8.51906 44.3565 8.39777C44.2091 8.27647 44.039 8.18556 43.8562 8.13027C43.6733 8.07499 43.4813 8.05642 43.2913 8.07566H43.2001C42.2401 8.07566 41.6812 8.52465 41.6812 9.17993C41.6812 9.83521 42.1976 10.1204 43.7652 10.3449C46.4265 10.7453 47.9151 11.4188 47.9151 13.7062C47.9151 15.9936 46.232 17.2193 43.4128 17.2193C40.5936 17.2193 38.8012 15.9512 38.7222 13.6395Z" fill="#FFB577"/>
<path d="M26.9224 6.31H29.8631V8.00281C30.1946 7.38147 30.6977 6.86822 31.3127 6.52404C31.9277 6.17986 32.6287 6.01923 33.3325 6.06124C35.4165 6.06124 36.9295 7.32933 36.9295 10.2235V17.0251H34.0251V10.6482C34.0251 9.19809 33.4601 8.50641 32.1477 8.50641C31.8703 8.48229 31.5909 8.51312 31.3254 8.59713C31.06 8.68114 30.8138 8.81667 30.601 8.99594C30.3881 9.17522 30.2129 9.3947 30.0852 9.6418C29.9575 9.8889 29.88 10.1587 29.857 10.4358C29.8419 10.5648 29.8419 10.6952 29.857 10.8242V17.0008H26.9224V6.31Z" fill="#FFB577"/>
<path d="M21.2476 3.62236C21.2369 3.32957 21.3135 3.0402 21.4676 2.7909C21.6217 2.54159 21.8465 2.34356 22.1134 2.22187C22.3803 2.10018 22.6773 2.06031 22.9669 2.1073C23.2565 2.1543 23.5256 2.28605 23.7402 2.48587C23.9548 2.68569 24.1052 2.94459 24.1723 3.2298C24.2394 3.51502 24.2203 3.81371 24.1174 4.08807C24.0144 4.36242 23.8323 4.60011 23.594 4.77102C23.3557 4.94194 23.0719 5.03841 22.7787 5.04821H22.724C22.542 5.05971 22.3595 5.03522 22.187 4.97613C22.0145 4.91705 21.8554 4.82454 21.7188 4.7039C21.5822 4.58327 21.4708 4.43689 21.391 4.27315C21.3111 4.10942 21.2645 3.93156 21.2536 3.74978C21.2486 3.7075 21.2466 3.66493 21.2476 3.62236ZM21.2476 6.31023H24.2187V17.001H21.2597L21.2476 6.31023Z" fill="#FFB577"/>
<path d="M10.0498 2.39062H19.4432V4.98141H13.3673V8.84636H18.1794V11.3401H13.3612V17.001H10.0498V2.39062Z" fill="#FFB577"/>
<path d="M4.38076 7.17168C4.38076 8.08786 4.38076 9.20427 3.11696 9.65933C4.41114 10.1022 4.38076 11.0427 4.38076 12.0256V15.6661C4.38076 16.3578 4.66025 16.7764 5.15848 16.8795C5.26796 16.9164 5.38329 16.9329 5.49873 16.9281H6.71392V19.3551H4.70886C2.57013 19.3551 1.39139 18.1416 1.39139 15.8906V11.5827C1.37622 11.3615 1.27857 11.1541 1.11771 11.0013C0.956855 10.8486 0.744484 10.7616 0.522532 10.7575H0V8.62786H0.522532C0.748913 8.62488 0.965455 8.53498 1.12723 8.37682C1.28901 8.21866 1.38361 8.00438 1.39139 7.77843V3.40989C1.39139 1.19528 2.54582 0 4.70886 0H6.73215V2.39056H5.51696C5.40138 2.3909 5.28657 2.40932 5.17671 2.44517C4.67848 2.57258 4.39899 2.98517 4.39899 3.65865L4.38076 7.17168Z" fill="#FFB577"/>
</g>
<defs>
<clipPath id="clip0_202_4">
<rect width="96" height="19.4157" fill="white"/>
</clipPath>
</defs>
</svg>

<svg width="96" height="20" fill="none" xmlns="http://www.w3.org/2000/svg"><g clip-path="url(#a)" fill="#FFB577"><path d="M95.8297 14.8287v2.3723h-1.9929c-2.1266-.0667-3.2628-1.2135-3.2628-3.3674V8.4154h-1.3914V6.3343h1.3914v-2.33h2.9408V6.31h2.2481v2.075h-2.2481v5.1574c0 .6977.1397 1.2559 1.2152 1.2559l1.0997.0304ZM77.462 11.7891v-.1578a5.3032 5.3032 0 0 1 1.3902-3.8269 5.3148 5.3148 0 0 1 1.6762-1.227 5.3223 5.3223 0 0 1 2.0192-.4917h.4253c2.7767 0 5.2132 1.614 5.2132 5.4607v.8191h-7.7165c.079 1.7717 1.039 2.7728 2.6552 2.7728 1.3914 0 2.0415-.6068 2.2299-1.4926h2.7767c-.3402 2.3117-2.1873 3.598-5.1099 3.598-3.2081-.0243-5.5595-2.0508-5.5595-5.4546Zm7.8319-1.2803c-.1032-1.6139-.9174-2.3905-2.3331-2.3905s-2.2299.8737-2.4304 2.3905h4.7635ZM65.4562 11.7891v-.1578a5.3026 5.3026 0 0 1 .312-2.049 5.3088 5.3088 0 0 1 1.0738-1.7737 5.3168 5.3168 0 0 1 1.6721-1.228 5.3233 5.3233 0 0 1 2.0155-.495h.4253c2.7767 0 5.2193 1.614 5.2193 5.4608v.8191h-7.7104c.079 1.7717 1.039 2.7728 2.6552 2.7728 1.3914 0 2.0415-.6068 2.2299-1.4926h2.7767c-.3464 2.3117-2.1934 3.598-5.116 3.598-3.202-.0243-5.5534-2.0508-5.5534-5.4546Zm7.8319-1.2803c-.1033-1.6139-.9175-2.3905-2.3332-2.3905-1.4157 0-2.2055.898-2.4303 2.3845l4.7635.006ZM48.6074 6.31h3.1109l1.9018 7.196 2.084-7.196h2.4304l1.8836 7.196 2.005-7.196h2.8496l-3.3782 10.6908h-2.9164l-1.8228-6.7105-1.9504 6.7105H51.852L48.6074 6.3101ZM38.7222 13.6395h2.7767c.1276.9647.6076 1.5168 1.8835 1.5168 1.1423 0 1.6709-.4308 1.6709-1.1649 0-.7342-.6076-1.0436-2.163-1.262-2.8496-.4308-3.9494-1.2499-3.9494-3.3371 0-2.2268 2.0415-3.331 4.2532-3.331 2.3757 0 4.1681.8616 4.4233 3.3189h-2.7403a1.4437 1.4437 0 0 0-1.0209-1.25 1.4483 1.4483 0 0 0-.5649-.0545h-.0912c-.96 0-1.5189.449-1.5189 1.1042 0 .6553.5164.9405 2.084 1.165 2.6613.4004 4.1499 1.0739 4.1499 3.3613s-1.6831 3.5131-4.5023 3.5131-4.6116-1.2681-4.6906-3.5798ZM26.9224 6.31h2.9407v1.6928a3.6796 3.6796 0 0 1 1.4496-1.4788 3.6861 3.6861 0 0 1 2.0198-.4628c2.084 0 3.597 1.2681 3.597 4.1623v6.8016h-2.9044v-6.3769c0-1.4501-.565-2.1418-1.8774-2.1418a2.1176 2.1176 0 0 0-1.5467.4895 2.1116 2.1116 0 0 0-.744 1.4399 1.6707 1.6707 0 0 0 0 .3884v6.1766h-2.9346V6.31ZM21.2476 3.6224a1.4786 1.4786 0 0 1 .22-.8315 1.4818 1.4818 0 0 1 .6458-.569 1.4843 1.4843 0 0 1 1.6268.264 1.4795 1.4795 0 0 1 .3772 1.6022 1.481 1.481 0 0 1-.5234.683 1.484 1.484 0 0 1-.8153.2771h-.0547a1.3872 1.3872 0 0 1-1.0052-.3443 1.383 1.383 0 0 1-.4652-.9541.904.904 0 0 1-.006-.1274Zm0 2.6878h2.9711V17.001h-2.959l-.0121-10.6908ZM10.0498 2.3906h9.3934v2.5908h-6.0759v3.865h4.8121V11.34h-4.8182v5.6609h-3.3114V2.3906ZM4.3808 7.1717c0 .9162 0 2.0326-1.2638 2.4876 1.2941.4429 1.2638 1.3834 1.2638 2.3663v3.6405c0 .6917.2794 1.1103.7777 1.2134a.9427.9427 0 0 0 .3402.0486H6.714v2.427H4.709c-2.1388 0-3.3175-1.2135-3.3175-3.4645v-4.3079a.8854.8854 0 0 0-.2737-.5814.8884.8884 0 0 0-.5952-.2438H0V8.6279h.5225a.8816.8816 0 0 0 .6047-.251.8791.8791 0 0 0 .2642-.5985V3.41C1.3914 1.1953 2.5458 0 4.7089 0H6.732v2.3906H5.517a1.1073 1.1073 0 0 0-.3403.0546c-.4982.1274-.7777.54-.7777 1.2135l-.0182 3.513Z"/></g><defs><clipPath id="a"><path fill="#fff" d="M0 0h96v19.4157H0z"/></clipPath></defs></svg>
